assets/icons/svg/female.svg

<svg width="16" height="16" viewBox="0 0 16 16" xmlns="http://www.w3.org/2000/svg">
<path d="M7.60863 2C4.53064 2 2.61884 3.77921 2.61884 6.63859C2.61884 7.0462 2.67923 7.44769 2.74183 7.87772C2.91203 9.03634 3.08883 10.2378 2.05661 11.538C2.01159 11.5951 1.99072 11.6634 2.0039 11.7337C2.01708 11.804 2.0632 11.8651 2.12689 11.9049C2.17411 11.9334 3.29417 12.6121 5.85166 12.875C6.49954 13.5995 7.24296 14 7.96002 14C8.68038 14 9.42928 13.6016 10.0772 12.875C12.6336 12.6101 13.8228 11.9416 13.8722 11.913C13.9403 11.8743 13.9809 11.806 13.9952 11.7337C14.0095 11.6613 13.9919 11.588 13.9425 11.5299C12.8949 10.2806 13.0355 9.21773 13.187 8.08967C13.2408 7.68716 13.3012 7.26834 13.3012 6.84239C13.3012 5.13757 12.4798 3.15048 10.1738 3.08424C9.19758 2.1875 8.24333 2 7.60863 2ZM9.8839 6.00272C10.3012 6.4144 11.0523 7.35598 11.0523 8.85598C11.0523 10.8573 9.71259 12.4511 9.69942 12.4674C9.69722 12.4704 9.70161 12.4725 9.69942 12.4755C9.14597 13.1206 8.52884 13.4783 7.96002 13.4783C7.3901 13.4783 6.76748 13.1185 6.21184 12.4674C6.20964 12.4643 6.20525 12.4623 6.20305 12.4592C6.18987 12.448 4.86776 11.2792 4.86776 9.56522C4.86776 8.25985 6.07567 7.98573 7.14303 7.74728C7.36375 7.69837 7.56909 7.65455 7.75797 7.60054C9.01969 7.23777 9.62475 6.46739 9.8839 6.00272ZM6.41389 8.78261C6.18109 8.78261 5.99222 8.95788 5.99222 9.17391C5.99222 9.38995 6.18109 9.56522 6.41389 9.56522C6.64669 9.56522 6.83556 9.38995 6.83556 9.17391C6.83556 8.95788 6.64669 8.78261 6.41389 8.78261ZM9.50615 8.78261C9.27335 8.78261 9.08448 8.95788 9.08448 9.17391C9.08448 9.38995 9.27335 9.56522 9.50615 9.56522C9.73895 9.56522 9.92782 9.38995 9.92782 9.17391C9.92782 8.95788 9.73895 8.78261 9.50615 8.78261Z"/>
</svg>

<svg xmlns="http://www.w3.org/2000/svg" width="16" height="16" viewBox="0 0 16 16">
  <path d="M7.609 2c-3.078 0-4.99 1.78-4.99 4.639 0 .407.06.809.123 1.239.17 1.158.347 2.36-.685 3.66a.24.24 0 0 0-.053.196c.013.07.06.131.123.17.047.03 1.167.708 3.725.971C6.5 13.6 7.243 14 7.96 14c.72 0 1.47-.398 2.117-1.125 2.557-.265 3.746-.933 3.795-.962a.26.26 0 0 0 .123-.18.239.239 0 0 0-.052-.203c-1.048-1.25-.907-2.312-.756-3.44.054-.403.114-.822.114-1.248 0-1.704-.821-3.692-3.127-3.758C9.198 2.187 8.244 2 7.609 2Zm2.275 4.003a3.961 3.961 0 0 1 1.168 2.853c0 2.001-1.34 3.595-1.353 3.611-.002.003.003.005 0 .008-.553.646-1.17 1.003-1.739 1.003-.57 0-1.193-.36-1.748-1.01-.002-.004-.007-.006-.009-.009-.013-.011-1.335-1.18-1.335-2.894 0-1.305 1.208-1.58 2.275-1.818.22-.049.426-.092.615-.146 1.262-.363 1.867-1.134 2.126-1.598Zm-3.47 2.78c-.233 0-.422.175-.422.39 0 .217.19.392.422.392.233 0 .422-.175.422-.391 0-.216-.19-.391-.422-.391Zm3.092 0c-.233 0-.422.175-.422.39 0 .217.19.392.422.392.233 0 .422-.175.422-.391 0-.216-.189-.391-.422-.391Z"/>
</svg>
